X:229
T:Seamus O'Brien
T:James O'Brien
B:The Grumbling Old Woman (Donna Hinds)
N:From the playing of Eleanor Townsend
Z:Nigel Gatherer
M:3/4
R:Waltz
L:1/8
K:G
g>f | e2 d2 B>A | G4 D>D | E2 G2 E2 | D2- D>E D>C | B,2 D2 G>B | e2 d2 B2 |
A4- A>B | A4 g>f | e2 d2 B>A | G4 D>D | E2 G2 c2 | e2- e>g f>e | 
d2 B2 G>B | A2 E2 F2 |g4- G>A | G4 || B2 | e2- e>d e>f | g2 f2 e2 | 
f2 B2- B>B | B4 B2 | e2- e>d e>f | g2 f2 g2 | f4 f2 | g4 f2 | e2 d2 B>A | 
G4 D>D | E2 G2 c2 | e2- e>g f>e | d2 B2 G>B | A2 E2 F2 | G4- G>A | G4 |]
<end>
<start>
